X: 419
T: Bir Usul ile
C: Ahmet Avni Konuk
O: Turkey
F: http://compmusic.upf.edu/node/140
N: neva-kurdi--kupe--musemmen--bir--ahmet_avni_konuk
N: makam= neva-kurdi
N: form= kupe
N: usul= musemmen = 8/8
M: 8/8
L: 1/16
K: C _1/4B ^f  
Q: 1/4=96
%%MIDI tuningsystem comma53
d4 A2cd edd4z2  | e=fe2 d2ed cddc2_2/4Bz2  | \
w:  Bir  u sul  *  *  *  i  |  le  *  *  ne vâ *  *  *  yı   | 
^3/4f4 f2ef gaag ^2/4fed2  | 
w:  mut rı bı  *  *  *  din  | 
e^3/4fg2 ^2/4feed dcd4z2  | g4 a2a4ag ^3/4f^3/4ef2  | \
w:  le *  *  ye *  rek    |  Dil  gi der  şevk_  | 
e^3/4fe2 faag fed4z2  | 
w:  ı  *  *  Ne *  vâ *  *  *  kür  | 
cdc2 d2e=f eded cdc2  | c_BA2 BAGA BB/A/A4z2  | 
w:  diy *  *  le  Kür *  *  *  dis  |  tâ *  *  ne  *  dek    | 
|


